icons/sqlalchemy-light.svg

<svg width="256" height="256" viewBox="0 0 256 256" fill="none" xmlns="http://www.w3.org/2000/svg">
<g clip-path="url(#clip0_692_2)">
<path d="M196 0H60C26.8629 0 0 26.8629 0 60V196C0 229.137 26.8629 256 60 256H196C229.137 256 256 229.137 256 196V60C256 26.8629 229.137 0 196 0Z" fill="#F4F2ED"/>
<path d="M30.1599 148.284C28.7871 148.066 25.2702 147.186 22.3589 146.39L17.0539 144.905L19.7749 139.904L22.4939 134.904L20.2966 132.183C17.1909 128.337 13.181 119.904 13.1544 117.187C13.1257 110.838 21.3666 101.636 31.4774 96.691C38.4273 93.2846 43.9492 93.2028 50.8725 96.4455L56.0916 98.8883L57.6035 96.7197C58.426 95.5372 59.1134 93.972 59.1134 93.2846C59.1134 92.5972 59.8008 91.9937 60.6253 91.9937C61.4498 91.9937 62.1352 92.2126 62.1352 92.4601C62.1352 93.0657 56.065 108.394 55.6804 108.778C55.5147 108.942 53.8657 108.175 51.9978 107.076C46.7235 103.97 40.1029 101.91 34.9657 101.773C23.0156 101.47 18.8665 113.148 27.3018 123.365L30.2683 126.966L38.3721 120.399C47.4661 113.064 48.5095 112.899 55.5986 117.79C63.5633 123.284 63.7003 131.635 56.0077 140.371C49.1949 148.145 42.1918 150.289 30.1578 148.282L30.1599 148.284ZM50.5452 139.907C54.4999 136.803 54.2258 131.06 49.9396 126.5C44.5548 120.786 42.8813 121.033 33.4026 128.945C23.9792 136.801 23.924 136.5 35.1887 140.099C42.6317 142.515 47.3025 142.433 50.5452 139.907ZM127.082 170.18C124.388 169.192 117.135 166.196 110.928 163.504C94.1699 156.196 91.8069 156.059 86.8067 162.131C85.6528 163.533 84.3905 164.41 84.0325 164.054C82.9604 162.982 86.1479 157.845 89.9942 154.467C93.1244 151.72 94.1678 151.335 97.6315 151.72C99.8288 151.965 107.137 154.522 113.866 157.379C129.059 163.833 133.508 165.208 139.306 165.208C146.365 165.208 149.992 160.263 147.766 153.698C147.218 152.049 147.382 151.499 148.482 151.499C150.541 151.499 151.586 159.191 150.103 163.614C149.468 165.509 147.629 168.201 146.009 169.548C143.591 171.581 142.052 172.021 137.518 171.992C134.47 171.966 129.775 171.17 127.082 170.18ZM87.934 146.693C81.6981 143.779 76.0657 138.231 72.823 131.747C67.6325 121.363 69.2242 114.715 79.0609 105.732C87.3284 98.1764 94.088 95.2364 103.182 95.2364C109.745 95.2364 111.147 95.5944 115.404 98.203C125.486 104.441 127.987 116.336 121.916 129.301C114.801 144.522 99.7736 152.188 87.934 146.693ZM108.812 139.467C113.481 137.159 116.697 126.5 115.378 117.653C113.729 106.749 98.9777 99.3016 88.1529 103.919C77.0273 108.672 76.8616 121.336 87.7969 132.736C95.4322 140.731 102 142.818 108.812 139.467ZM129.994 148.698C129.994 148.229 131.722 147.407 133.866 146.883L137.739 145.921L138.564 131.968C139.47 116.528 138.809 101.335 137.136 99.3036C136.53 98.5876 134.691 97.7079 133.015 97.3253C126.203 95.8133 130.734 94.7699 143.949 94.7699C157.163 94.7699 161.365 95.7315 155.074 97.3253C149.663 98.6715 149.634 98.7533 149.634 120.786C149.634 133.01 150.074 142.214 150.706 143.395C151.586 145.044 152.904 145.4 157.959 145.4C168.397 145.4 171.996 142.928 174.827 133.779C175.678 131.033 177.876 131.529 177.107 134.303C176.748 135.592 176.174 139.52 175.816 143.092L175.157 149.549H152.574C140.156 149.549 129.994 149.164 129.994 148.698Z" fill="#333333"/>
<path d="M181.282 148.037C181.282 147.214 182.08 146.39 183.398 145.758C185.157 144.933 186.309 143.202 190.485 135.043C197.105 122.134 207.545 99.9623 208.534 96.6377C209.303 94.1111 209.469 93.974 212.325 93.6446C213.974 93.4523 215.346 93.3418 215.373 93.397C215.402 93.4523 217.683 98.4504 220.457 104.523C223.205 110.593 228.727 122.132 232.737 130.154C239.441 143.642 240.184 144.851 242.434 145.948C243.809 146.609 244.879 147.626 244.879 148.229C244.879 149.191 243.698 149.301 233.534 149.301C223.342 149.301 222.188 149.191 222.188 148.203C222.188 147.544 223.068 146.83 224.467 146.361C225.76 145.95 226.748 145.181 226.748 144.604C226.748 144.053 225.402 140.428 223.753 136.555L220.76 129.495H198.067L195.898 134.274C191.831 143.231 191.749 145.346 195.54 146.361C197.437 146.883 197.958 147.296 197.737 148.147C197.492 149.138 196.502 149.273 189.359 149.273C181.693 149.33 181.282 149.273 181.282 148.037ZM218.479 125.812C218.863 125.127 210.32 106.472 209.524 106.28C208.947 106.116 200.1 124.358 200.1 125.73C200.1 126.418 218.067 126.5 218.479 125.812Z" fill="#CA2727"/>
</g>
<defs>
<clipPath id="clip0_692_2">
<rect width="256" height="256" fill="white"/>
</clipPath>
</defs>
</svg>

<svg xmlns="http://www.w3.org/2000/svg" width="256" height="256" fill="none"><g clip-path="url(#clip0_692_2)"><path fill="#F4F2ED" d="M196 0H60C26.863 0 0 26.863 0 60v136c0 33.137 26.863 60 60 60h136c33.137 0 60-26.863 60-60V60c0-33.137-26.863-60-60-60"/><path fill="#333" d="M30.16 148.284c-1.373-.218-4.89-1.098-7.801-1.894l-5.305-1.485 2.72-5.001 2.72-5-2.197-2.721c-3.106-3.846-7.116-12.279-7.143-14.996-.028-6.349 8.213-15.551 18.323-20.496 6.95-3.406 12.472-3.488 19.396-.246l5.219 2.443 1.511-2.168c.823-1.183 1.51-2.748 1.51-3.435 0-.688.688-1.291 1.512-1.291s1.51.219 1.51.466c0 .606-6.07 15.934-6.455 16.318-.165.164-1.814-.603-3.682-1.702-5.274-3.106-11.895-5.166-17.032-5.303-11.95-.303-16.1 11.375-7.664 21.592l2.966 3.601 8.104-6.567c9.094-7.335 10.138-7.5 17.227-2.609 7.964 5.494 8.101 13.845.409 22.581-6.813 7.774-13.816 9.918-25.85 7.911zm20.385-8.377c3.955-3.104 3.68-8.847-.605-13.407-5.385-5.714-7.059-5.467-16.537 2.445-9.424 7.856-9.479 7.555 1.786 11.154 7.443 2.416 12.114 2.334 15.356-.192m76.537 30.273c-2.694-.988-9.947-3.984-16.154-6.676-16.758-7.308-19.121-7.445-24.121-1.373-1.154 1.402-2.416 2.279-2.775 1.923-1.072-1.072 2.116-6.209 5.962-9.587 3.13-2.747 4.174-3.132 7.638-2.747 2.197.245 9.505 2.802 16.234 5.659 15.193 6.454 19.642 7.829 25.44 7.829 7.059 0 10.686-4.945 8.46-11.51-.548-1.649-.384-2.199.716-2.199 2.059 0 3.104 7.692 1.621 12.115-.635 1.895-2.474 4.587-4.094 5.934-2.418 2.033-3.957 2.473-8.491 2.444-3.048-.026-7.743-.822-10.436-1.812m-39.148-23.487c-6.236-2.914-11.868-8.462-15.111-14.946-5.19-10.384-3.599-17.032 6.238-26.015 8.267-7.556 15.027-10.496 24.121-10.496 6.563 0 7.965.358 12.222 2.967 10.082 6.238 12.583 18.133 6.512 31.098-7.115 15.221-22.142 22.887-33.982 17.392m20.878-7.226c4.669-2.308 7.885-12.967 6.566-21.814-1.649-10.904-16.4-18.351-27.225-13.734-11.126 4.753-11.291 17.417-.356 28.817 7.635 7.995 14.203 10.082 21.015 6.731m21.182 9.231c0-.469 1.728-1.291 3.872-1.815l3.873-.962.825-13.953c.906-15.44.245-30.633-1.428-32.664-.606-.716-2.445-1.596-4.121-1.979-6.812-1.512-2.281-2.555 10.934-2.555s17.416.962 11.125 2.555c-5.411 1.346-5.44 1.428-5.44 23.461 0 12.224.44 21.428 1.072 22.609.88 1.649 2.198 2.005 7.253 2.005 10.438 0 14.037-2.472 16.868-11.621.851-2.746 3.049-2.25 2.28.524-.359 1.289-.933 5.217-1.291 8.789l-.659 6.457h-22.583c-12.418 0-22.58-.385-22.58-.851"/><path fill="#CA2727" d="M181.282 148.037c0-.823.798-1.647 2.116-2.279 1.759-.825 2.911-2.556 7.087-10.715 6.62-12.909 17.06-35.08 18.049-38.405.769-2.527.935-2.664 3.791-2.993 1.649-.193 3.021-.303 3.048-.248.029.055 2.31 5.053 5.084 11.126 2.748 6.07 8.27 17.609 12.28 25.631 6.704 13.488 7.447 14.697 9.697 15.794 1.375.661 2.445 1.678 2.445 2.281 0 .962-1.181 1.072-11.345 1.072-10.192 0-11.346-.11-11.346-1.098 0-.659.88-1.373 2.279-1.842 1.293-.411 2.281-1.18 2.281-1.757 0-.551-1.346-4.176-2.995-8.049l-2.993-7.06h-22.693l-2.169 4.779c-4.067 8.957-4.149 11.072-.358 12.087 1.897.522 2.418.935 2.197 1.786-.245.991-1.235 1.126-8.378 1.126-7.666.057-8.077 0-8.077-1.236m37.197-22.225c.384-.685-8.159-19.34-8.955-19.532-.577-.164-9.424 18.078-9.424 19.45 0 .688 17.967.77 18.379.082"/></g><defs><clipPath id="clip0_692_2"><path fill="#fff" d="M0 0h256v256H0z"/></clipPath></defs></svg>
